svg/Pictogram/pictograms-nps-winter-snowboarding.svg

<svg xmlns="http://www.w3.org/2000/svg" viewBox="0 0 256 256"><path d="m0 0c-.541 0-.981-.44-.981-.981v-7.528c0-.541.44-.981.981-.981h7.524c.542 0 .984.44.984.981v7.528c0 .541-.442.981-.984.981h-7.524" fill="#fff" transform="matrix(25.88211 0 0-25.88211 30.58 5.189)"/><path d="m0 0c.654 0 1.184.529 1.184 1.182v7.527c0 .652-.53 1.182-1.184 1.182h-7.524c-.653 0-1.182-.53-1.182-1.182v-7.527c0-.653.529-1.182 1.182-1.182h7.524" transform="matrix(25.88211 0 0-25.88211 225.33 256)"/><g fill="#fff"><path d="m0 0c.365 0 .662.297.662.662 0 .365-.297.662-.662.662-.365 0-.662-.297-.662-.662 0-.365.297-.662.662-.662" transform="matrix(25.88211 0 0-25.88211 182.92 64.26)"/><path d="m0 0l1.406.693 1.307-1.203c.058-.056.137-.092.225-.092.175.002.316.145.314.321 0 .093-.043.177-.107.234l-1.866 1.715c-.062.061-.134.109-.215.145l-1.453.517-.66.957c-.051.068-.129.117-.221.129-.173.02-.33-.105-.351-.279-.008-.074.001-.145.047-.203l.674-.975c.031-.041.07-.072.117-.094l.781-.308-1.285-.657c-.178-.103-.307-.281-.342-.492l.008-1.174-1.187-.535c-.134-.062-.23-.197-.236-.355-.001-.227.166-.418.393-.428.07-.002.138.014.197.043l1.454.656c.104.057.182.156.207.276l-.004.73 1.01-.9-.186-1.541c0-.008-.002-.018-.002-.028-.009-.226.166-.418.393-.427.213-.001.396.146.424.353l.217 1.756c.002.008.002.016.002.023.005.123-.043.237-.127.315l-.934.828" transform="matrix(25.88211 0 0-25.88211 141.01 110.41)"/></g><path d="m0 0c.078-.232.256-.43.502-.523l5.556-2.114c.246-.093.509-.066.72.055" fill="none" stroke="#fff" stroke-linecap="round" stroke-width=".04" transform="matrix(25.88211 0 0-25.88211 30.784 150)"/></svg>

<?xml version="1.0" encoding="UTF-8" standalone="no"?>
<!-- Created with Inkscape (http://www.inkscape.org/) -->
<svg
   xmlns:dc="http://purl.org/dc/elements/1.1/"
   xmlns:cc="http://creativecommons.org/ns#"
   xmlns:rdf="http://www.w3.org/1999/02/22-rdf-syntax-ns#"
   xmlns:svg="http://www.w3.org/2000/svg"
   xmlns="http://www.w3.org/2000/svg"
   xmlns:sodipodi="http://sodipodi.sourceforge.net/DTD/sodipodi-0.dtd"
   xmlns:inkscape="http://www.inkscape.org/namespaces/inkscape"
   width="256"
   height="256"
   id="svg8302"
   sodipodi:version="0.32"
   inkscape:version="0.46"
   version="1.0"
   sodipodi:docname="pictograms-nps-winter-snowboarding-2.svg"
   inkscape:output_extension="org.inkscape.output.svg.inkscape">
  <defs
     id="defs8304">
    <inkscape:perspective
       sodipodi:type="inkscape:persp3d"
       inkscape:vp_x="0 : 526.18109 : 1"
       inkscape:vp_y="0 : 1000 : 0"
       inkscape:vp_z="744.09448 : 526.18109 : 1"
       inkscape:persp3d-origin="372.04724 : 350.78739 : 1"
       id="perspective8310" />
  </defs>
  <sodipodi:namedview
     id="base"
     pagecolor="#ffffff"
     bordercolor="#666666"
     borderopacity="1.0"
     gridtolerance="10000"
     guidetolerance="10"
     objecttolerance="10"
     inkscape:pageopacity="0.0"
     inkscape:pageshadow="2"
     inkscape:zoom="0.7"
     inkscape:cx="61.634556"
     inkscape:cy="136.73676"
     inkscape:document-units="px"
     inkscape:current-layer="layer1"
     showgrid="false"
     inkscape:window-width="738"
     inkscape:window-height="674"
     inkscape:window-x="0"
     inkscape:window-y="198" />
  <metadata
     id="metadata8307">
    <rdf:RDF>
      <cc:Work
         rdf:about="">
        <dc:format>image/svg+xml</dc:format>
        <dc:type
           rdf:resource="http://purl.org/dc/dcmitype/StillImage" />
      </cc:Work>
    </rdf:RDF>
  </metadata>
  <g
     inkscape:label="Layer 1"
     inkscape:groupmode="layer"
     id="layer1">
    <g
       id="g6176"
       transform="matrix(25.882115,0,0,-25.882115,30.579822,5.1894676)">
      <path
         d="M 0,0 C -0.541,0 -0.981,-0.44 -0.981,-0.981 L -0.981,-8.509 C -0.981,-9.05 -0.541,-9.49 0,-9.49 L 7.524,-9.49 C 8.066,-9.49 8.508,-9.05 8.508,-8.509 L 8.508,-0.981 C 8.508,-0.44 8.066,0 7.524,0 L 0,0 z"
         style="fill:#ffffff;fill-opacity:1;fill-rule:nonzero;stroke:none"
         id="path6178" />
    </g>
    <g
       id="g6180"
       transform="matrix(25.882115,0,0,-25.882115,225.32969,256)">
      <path
         d="M 0,0 C 0.654,0 1.184,0.529 1.184,1.182 L 1.184,8.709 C 1.184,9.361 0.654,9.891 0,9.891 L -7.524,9.891 C -8.177,9.891 -8.706,9.361 -8.706,8.709 L -8.706,1.182 C -8.706,0.529 -8.177,0 -7.524,0 L 0,0 z"
         style="fill:#000000;fill-opacity:1;fill-rule:nonzero;stroke:none"
         id="path6182" />
    </g>
    <g
       id="g6184"
       transform="matrix(25.882115,0,0,-25.882115,182.91678,64.260529)">
      <path
         d="M 0,0 C 0.365,0 0.662,0.297 0.662,0.662 C 0.662,1.027 0.365,1.324 0,1.324 C -0.365,1.324 -0.662,1.027 -0.662,0.662 C -0.662,0.297 -0.365,0 0,0"
         style="fill:#ffffff;fill-opacity:1;fill-rule:nonzero;stroke:none"
         id="path6186" />
    </g>
    <g
       id="g6188"
       transform="matrix(25.882115,0,0,-25.882115,141.00845,110.4131)">
      <path
         d="M 0,0 L 1.406,0.693 L 2.713,-0.51 C 2.771,-0.566 2.85,-0.602 2.938,-0.602 C 3.113,-0.6 3.254,-0.457 3.252,-0.281 C 3.252,-0.188 3.209,-0.104 3.145,-0.047 L 1.279,1.668 C 1.217,1.729 1.145,1.777 1.064,1.813 L -0.389,2.33 L -1.049,3.287 C -1.1,3.355 -1.178,3.404 -1.27,3.416 C -1.443,3.436 -1.6,3.311 -1.621,3.137 C -1.629,3.063 -1.611,2.992 -1.574,2.934 L -0.9,1.959 C -0.869,1.918 -0.83,1.887 -0.783,1.865 L -0.002,1.557 L -1.287,0.9 C -1.465,0.797 -1.594,0.619 -1.629,0.408 L -1.621,-0.766 L -2.808,-1.301 C -2.942,-1.363 -3.038,-1.498 -3.044,-1.656 C -3.054,-1.883 -2.878,-2.074 -2.651,-2.084 C -2.581,-2.086 -2.513,-2.07 -2.454,-2.041 L -1,-1.385 C -0.896,-1.328 -0.818,-1.229 -0.793,-1.109 L -0.797,-0.379 L 0.213,-1.279 L 0.027,-2.82 C 0.027,-2.828 0.025,-2.838 0.025,-2.848 C 0.016,-3.074 0.191,-3.266 0.418,-3.275 C 0.631,-3.285 0.814,-3.129 0.842,-2.922 L 1.059,-1.166 C 1.061,-1.158 1.061,-1.15 1.061,-1.143 C 1.066,-1.02 1.018,-0.906 0.934,-0.828 L 0,0 z"
         style="fill:#ffffff;fill-opacity:1;fill-rule:nonzero;stroke:none"
         id="path6190" />
    </g>
    <g
       id="g6192"
       transform="matrix(25.882115,0,0,-25.882115,30.784395,149.99514)">
      <path
         d="M 0,0 C 0.078,-0.232 0.256,-0.43 0.502,-0.523 L 6.058,-2.637 C 6.304,-2.73 6.567,-2.703 6.778,-2.582"
         style="fill:none;stroke:#ffffff;stroke-width:0.04018219;stroke-linecap:round;stroke-linejoin:miter;stroke-miterlimit:4;stroke-dasharray:none;stroke-opacity:1"
         id="path6194" />
    </g>
  </g>
</svg>
